public/images/ipfs-logo.svg

<svg fill="none" height="233" viewBox="0 0 202 233" width="202" xmlns="http://www.w3.org/2000/svg"><path d="m100.845 232.993 100.727-58.198v-116.3132l-100.727 58.1152z" fill="#35777a"/><path d="m100.845 232.993v-116.509l-100.727324-58.0022v116.3132z" fill="#43979b"/><path d="m.117676 58.4815 100.727324 58.1155 100.727-58.1155-100.727-58.115045z" fill="#3f898d"/><path d="m90.4824 14.3445-73.0376 42.1976c.1658 1.3264.1658 2.57 0 3.8964l73.0376 42.1975c6.1348-4.5595 14.5906-4.5595 20.7256 0l73.038-42.1975c-.166-1.3264-.166-2.57 0-3.8964l-73.038-42.1976c-6.218 4.5596-14.5908 4.5596-20.7256 0z" fill="#51b8bc"/><path d="m191.209 72.0448-73.12 42.6122c.829 7.627-3.316 14.84-10.363 17.907l.083 83.898c1.161.497 2.321 1.16 3.399 1.99l73.038-42.198c-.829-7.627 3.316-14.84 10.362-17.907v-84.3125c-1.16-.4974-2.321-1.1607-3.399-1.9897z" fill="#459da2"/><path d="m10.4808 72.542c-1.07773.7461-2.15547 1.4094-3.39901 1.9897v84.3123c7.04671 3.067 11.19191 10.363 10.36291 17.907l73.0375 42.198c1.0778-.746 2.1555-1.41 3.399-1.99v-84.312c-7.0467-3.068-11.1919-10.363-10.3628-17.907z" fill="#64c1c8"/><g fill="#fff"><path d="m31.5317 84.4706h-13.4094v64.8674h13.4094z"/><path d="m54.9143 149.338v-23.801c3.2685.251 6.6209.251 9.3865.251 19.1084 0 24.6398-9.47 24.6398-21.12 0-14.1632-10.1409-20.1974-25.7293-20.1974h-21.7064v64.8674zm7.2075-32.936c-2.5143 0-6.118 0-7.2913-.084v-22.0418h8.3808c8.0457 0 12.6551 3.8552 12.6551 10.8948v.168c.0838 5.531-1.9276 11.063-13.7446 11.063z"/><path d="m134.783 84.4706h-40.7308v64.8674h13.4098v-28.578h25.477v-9.722h-25.561v-16.678h26.483z"/><path d="m178.699 97.2101 3.52-8.9675c-5.196-3.7714-12.32-5.1124-21.204-5.1124-12.99 0-23.634 6.0343-23.634 18.4378 0 11.147 8.214 15.505 16.343 18.187l8.213 2.765c5.615 1.928 10.225 3.772 10.225 9.806 0 5.531-4.777 7.71-12.069 7.71-7.375 0-15.253-2.179-19.778-5.028l-3.52 9.722c5.866 3.771 13.325 5.615 23.298 5.615 14.248 0 25.227-6.286 25.227-19.528 0-12.403-9.47-16.342-19.025-19.527l-8.883-2.933c-3.856-1.257-6.789-3.017-6.789-7.962 0-5.0287 4.107-7.0401 10.309-7.0401 7.542-.2514 13.409 1.1733 17.767 3.8552z"/></g></svg>

<svg width="202" height="233" viewBox="0 0 202 233" fill="none" xmlns="http://www.w3.org/2000/svg">
<path d="M100.845 232.993L201.572 174.795V58.4818L100.845 116.597V232.993Z" fill="#35777A"/>
<path d="M100.845 232.993V116.484L0.117676 58.4818V174.795L100.845 232.993Z" fill="#43979B"/>
<path d="M0.117676 58.4815L100.845 116.597L201.572 58.4815L100.845 0.366455L0.117676 58.4815Z" fill="#3F898D"/>
<path d="M90.4824 14.3445L17.4448 56.5421C17.6106 57.8685 17.6106 59.1121 17.4448 60.4385L90.4824 102.636C96.6172 98.0765 105.073 98.0765 111.208 102.636L184.246 60.4385C184.08 59.1121 184.08 57.8685 184.246 56.5421L111.208 14.3445C104.99 18.9041 96.6172 18.9041 90.4824 14.3445Z" fill="#51B8BC"/>
<path d="M191.209 72.0448L118.089 114.657C118.918 122.284 114.773 129.497 107.726 132.564L107.809 216.462C108.97 216.959 110.13 217.622 111.208 218.452L184.246 176.254C183.417 168.627 187.562 161.414 194.608 158.347V74.0345C193.448 73.5371 192.287 72.8738 191.209 72.0448Z" fill="#459DA2"/>
<path d="M10.4808 72.542C9.40307 73.2881 8.32533 73.9514 7.08179 74.5317V158.844C14.1285 161.911 18.2737 169.207 17.4447 176.751L90.4822 218.949C91.56 218.203 92.6377 217.539 93.8812 216.959V132.647C86.8345 129.579 82.6893 122.284 83.5184 114.74L10.4808 72.542Z" fill="#64C1C8"/>
<path d="M31.5317 84.4706H18.1223V149.338H31.5317V84.4706Z" fill="white"/>
<path d="M54.9143 149.338V125.537C58.1828 125.788 61.5352 125.788 64.3008 125.788C83.4092 125.788 88.9406 116.318 88.9406 104.668C88.9406 90.5048 78.7997 84.4706 63.2113 84.4706H41.5049V149.338H54.9143ZM62.1218 116.402C59.6075 116.402 56.0038 116.402 54.8305 116.318V94.2762H63.2113C71.257 94.2762 75.8664 98.1314 75.8664 105.171V105.339C75.9502 110.87 73.9388 116.402 62.1218 116.402Z" fill="white"/>
<path d="M134.783 84.4706H94.0522V149.338H107.462V120.76H132.939V111.038H107.378V94.36H133.861L134.783 84.4706Z" fill="white"/>
<path d="M178.699 97.2101L182.219 88.2426C177.023 84.4712 169.899 83.1302 161.015 83.1302C148.025 83.1302 137.381 89.1645 137.381 101.568C137.381 112.715 145.595 117.073 153.724 119.755L161.937 122.52C167.552 124.448 172.162 126.292 172.162 132.326C172.162 137.857 167.385 140.036 160.093 140.036C152.718 140.036 144.84 137.857 140.315 135.008L136.795 144.73C142.661 148.501 150.12 150.345 160.093 150.345C174.341 150.345 185.32 144.059 185.32 130.817C185.32 118.414 175.85 114.475 166.295 111.29L157.412 108.357C153.556 107.1 150.623 105.34 150.623 100.395C150.623 95.3663 154.73 93.3549 160.932 93.3549C168.474 93.1035 174.341 94.5282 178.699 97.2101Z" fill="white"/>
</svg>
